SVG/expeditedssl.svg

<?xml version="1.0" encoding="utf-8"?>
<!-- Generated by IcoMoon.io -->
<!DOCTYPE svg PUBLIC "-//W3C//DTD SVG 1.1//EN" "http://www.w3.org/Graphics/SVG/1.1/DTD/svg11.dtd">
<svg version="1.1" xmlns="http://www.w3.org/2000/svg" xmlns:xlink="http://www.w3.org/1999/xlink" width="14" height="14" viewBox="0 0 14 14">
<path fill="#444444" d="M7 0.5q-1.32 0-2.523 0.516t-2.074 1.387-1.387 2.074-0.516 2.523 0.516 2.523 1.387 2.074 2.074 1.387 2.523 0.516 2.523-0.516 2.074-1.387 1.387-2.074 0.516-2.523-0.516-2.523-1.387-2.074-2.074-1.387-2.523-0.516zM7 0q1.422 0 2.719 0.555t2.234 1.492 1.492 2.234 0.555 2.719-0.555 2.719-1.492 2.234-2.234 1.492-2.719 0.555-2.719-0.555-2.234-1.492-1.492-2.234-0.555-2.719 0.555-2.719 1.492-2.234 2.234-1.492 2.719-0.555zM3.875 6.5q0.125 0 0.125 0.125v3.75q0 0.125-0.125 0.125h-0.25q-0.125 0-0.125-0.125v-3.75q0-0.125 0.125-0.125h0.25zM7 7q0.414 0 0.707 0.293t0.293 0.707q0 0.273-0.137 0.5t-0.363 0.359v0.891q0 0.109-0.070 0.18t-0.18 0.070h-0.5q-0.109 0-0.18-0.070t-0.070-0.18v-0.891q-0.227-0.133-0.363-0.359t-0.137-0.5q0-0.414 0.293-0.707t0.707-0.293zM7 1q1.633 0 3.012 0.805t2.184 2.184 0.805 3.012-0.805 3.012-2.184 2.184-3.012 0.805-3.012-0.805-2.184-2.184-0.805-3.012 0.805-3.012 2.184-2.184 3.012-0.805zM4.25 4.75v0.75q0 0.109 0.070 0.18t0.18 0.070h0.5q0.109 0 0.18-0.070t0.070-0.18v-0.75q0-0.727 0.512-1.238t1.238-0.512 1.238 0.512 0.512 1.238v0.75q0 0.109 0.070 0.18t0.18 0.070h0.5q0.109 0 0.18-0.070t0.070-0.18v-0.75q0-1.141-0.805-1.945t-1.945-0.805-1.945 0.805-0.805 1.945zM11 10.5v-4q0-0.203-0.148-0.352t-0.352-0.148h-7q-0.203 0-0.352 0.148t-0.148 0.352v4q0 0.203 0.148 0.352t0.352 0.148h7q0.203 0 0.352-0.148t0.148-0.352z"></path>
</svg>

<svg xmlns="http://www.w3.org/2000/svg" viewBox="0 0 14 14"><path d="M7 .5q-1.32 0-2.523.516T2.403 2.403 1.016 4.477.5 7t.516 2.523 1.387 2.074 2.074 1.387T7 13.5t2.523-.516 2.074-1.387 1.387-2.074T13.5 7t-.516-2.523-1.387-2.074-2.074-1.387T7 .5zM7 0q1.422 0 2.72.555t2.233 1.492 1.492 2.234T14 7t-.555 2.72-1.492 2.233-2.234 1.492T7 14t-2.72-.555-2.233-1.492T.555 9.72 0 7t.555-2.72 1.492-2.233T4.28.555 7 0zM3.875 6.5Q4 6.5 4 6.625v3.75q0 .125-.125.125h-.25q-.125 0-.125-.125v-3.75q0-.125.125-.125h.25zM7 7q.414 0 .707.293T8 8q0 .273-.137.5t-.363.36v.89q0 .11-.07.18t-.18.07h-.5q-.11 0-.18-.07t-.07-.18v-.89q-.227-.134-.363-.36T6 8q0-.414.293-.707T7 7zm0-6q1.633 0 3.012.805t2.184 2.184T13 7t-.804 3.013-2.184 2.184T7 13.002t-3.012-.805-2.184-2.184T1 7t.804-3.01 2.184-2.185T7 1zM4.25 4.75v.75q0 .11.07.18t.18.07H5q.11 0 .18-.07t.07-.18v-.75q0-.727.512-1.238T7 3t1.238.512.512 1.238v.75q0 .11.07.18t.18.07h.5q.11 0 .18-.07t.07-.18v-.75q0-1.14-.805-1.945T7 2t-1.945.805T4.25 4.75zM11 10.5v-4q0-.203-.148-.352T10.5 6h-7q-.203 0-.352.148T3 6.5v4q0 .203.148.352T3.5 11h7q.203 0 .352-.148T11 10.5z" /></svg>
